X: 2857
T: Bargenny Bowling Green
R: jig
M: 6/8
K: Ddorian
|:DED D2c|GEC C2E|DED D2e|f2d ecA|
fgf e2 d|cAc C2e|DED D2f|(4efge d3:|
|:ded d2 a|gec c2e|ded d2a|g2e cde|
fgf e2d|cAc C2E|DED D2 f|(4efge d3:|
|:dAd cAc|GEC C2c|dAd cAc|dAd cAc|
fed cAF|GEC C2E|DED D2f|(4efge d3:|
|:afd afd|gec efg|afd afd|afd d2e|
fgf e2d|cAc C2E|DED D2f|(4efge d3:|

